src/images/favicon.svg

<svg width="303" height="144" viewBox="0 0 303 144" fill="none" xmlns="http://www.w3.org/2000/svg">
<rect x="30" width="26" height="42" rx="13" fill="#415148"/>
<path fill-rule="evenodd" clip-rule="evenodd" d="M37.5539 1.96265C35.9039 2.71465 33.4461 4.46332 32 5.99999C30.5539 7.53666 30.0539 10.7427 30 12C29.9461 13.2573 29.2599 39.4136 29.2599 39.4136C28.9829 68.3376 29.0869 70.4597 31.0789 76.6587C34.9299 88.6437 45.2339 98.8367 56.9369 102.239C64.9089 104.557 76.8929 103.727 84.2719 100.345C112.877 87.2367 114.746 48.0326 87.5289 32.0256C79.2099 27.1326 66.8249 25.5477 57.4009 28.1687C55.3139 28.7487 55.2359 28.4537 54.9009 18.6907C54.5559 8.67966 54.5309 8.59165 51.0539 5.16565C46.9589 1.13165 43 0.499992 37.5539 1.96265ZM120.367 1.67666C116.499 2.80866 113.419 6.51666 112.014 11.7337C111.343 14.2237 111.073 29.7416 111.261 54.8986C111.586 98.4516 111.426 97.4017 118.358 101.629C124.208 105.196 131.65 103.183 135.75 96.9267C137.417 94.3827 137.554 90.9687 137.554 52.1287C137.554 13.1237 137.422 9.89065 135.735 7.40365C132.202 2.19965 126.211 -0.0323441 120.367 1.67666ZM254.927 28.5227C244.279 30.5997 232.492 39.9187 227.402 50.2837C225.577 54 224.554 58 224.554 66.0997C224.554 75.3717 225.727 78.5 227.795 82.7047C235.446 98.2587 252.416 107.113 269.429 104.428C272.66 103.918 275.544 103.742 275.839 104.037C276.903 105.101 273.848 112.871 271.515 115.033C270.202 116.251 267.344 117.781 265.164 118.434C257.05 120.865 253.272 129.171 256.977 136.434C259.763 141.895 263.9 144 270.348 143.237C285.095 141.49 298.805 127.273 301.11 111.335C302.676 100.503 302.276 63.8557 300.517 57.1027C295.311 37.1157 275.271 24.5537 254.927 28.5227ZM74.7549 54.5447C81.6389 58.7417 82.9329 67.9707 77.4409 73.7027C70.9189 80.5097 60.8649 78.9217 56.4519 70.3867C52.3589 62.4717 58.7999 52.5917 68.0539 52.5917C69.9789 52.5917 72.9949 53.4707 74.7549 54.5447ZM267.418 54.9636C274.634 57.9786 277.439 65.0937 274.116 71.9557C270.224 79.9967 260.659 81.7776 253.881 75.7216C247.62 70.1276 249.569 58.4387 257.324 55.0677C261.443 53.2767 263.334 53.2566 267.418 54.9636ZM7.46887 79.9667C0.647874 83.0227 -2.04713 91.2197 1.68987 97.5447C7.95187 108.146 24.0649 103.845 24.2349 91.5276C24.3559 82.7886 15.2239 76.4927 7.46887 79.9667Z" fill="#415148"/>
<path fill-rule="evenodd" clip-rule="evenodd" d="M181.054 105.585C203.145 105.585 221.054 87.676 221.054 65.5847C221.054 43.4933 203.145 25.5847 181.054 25.5847C158.962 25.5847 141.054 43.4933 141.054 65.5847C141.054 74.6467 144.067 83.0049 149.147 89.7118L143.054 106.585L160.291 99.7806C166.343 103.463 173.451 105.585 181.054 105.585Z" fill="#98D4CD"/>
<rect x="111" width="26" height="105" rx="13" fill="#415148"/>
</svg>

<svg width="303" height="144" fill="none" xmlns="http://www.w3.org/2000/svg"><rect x="30" width="26" height="42" rx="13" fill="#415148"/><path fill-rule="evenodd" clip-rule="evenodd" d="M37.554 1.963C35.904 2.715 33.446 4.463 32 6c-1.446 1.537-1.946 4.743-2 6-.054 1.257-.74 27.414-.74 27.414-.277 28.924-.173 31.046 1.819 37.245 3.85 11.985 14.155 22.178 25.858 25.58 7.972 2.318 19.956 1.488 27.335-1.894 28.605-13.108 30.474-52.312 3.257-68.32-8.32-4.892-20.704-6.477-30.128-3.856-2.087.58-2.165.285-2.5-9.478-.345-10.011-.37-10.1-3.847-13.525C46.959 1.132 43 .5 37.554 1.963zm82.813-.286c-3.868 1.132-6.948 4.84-8.353 10.057-.671 2.49-.941 18.008-.753 43.165.325 43.553.165 42.503 7.097 46.73 5.85 3.567 13.292 1.554 17.392-4.702 1.667-2.544 1.804-5.958 1.804-44.798 0-39.005-.132-42.238-1.819-44.725-3.533-5.204-9.524-7.436-15.368-5.727zm134.56 26.846c-10.648 2.077-22.435 11.396-27.525 21.76C225.577 54 224.554 58 224.554 66.1c0 9.272 1.173 12.4 3.241 16.605 7.651 15.554 24.621 24.408 41.634 21.723 3.231-.51 6.115-.686 6.41-.391 1.064 1.064-1.991 8.834-4.324 10.996-1.313 1.218-4.171 2.748-6.351 3.401-8.114 2.431-11.892 10.737-8.187 18 2.786 5.461 6.923 7.566 13.371 6.803 14.747-1.747 28.457-15.964 30.762-31.902 1.566-10.832 1.166-47.48-.593-54.232-5.206-19.987-25.246-32.55-45.59-28.58zM74.755 54.545c6.884 4.197 8.178 13.426 2.686 19.158-6.522 6.807-16.576 5.219-20.99-3.316-4.092-7.915 2.349-17.795 11.603-17.795 1.925 0 4.94.879 6.7 1.953zm192.663.419c7.216 3.015 10.021 10.13 6.698 16.992-3.892 8.04-13.457 9.822-20.235 3.766-6.261-5.594-4.312-17.283 3.443-20.654 4.119-1.791 6.01-1.811 10.094-.104zM7.468 79.967C.649 83.023-2.046 91.22 1.69 97.545c6.262 10.601 22.375 6.3 22.545-6.017.12-8.74-9.011-15.035-16.766-11.561z" fill="#415148"/><path fill-rule="evenodd" clip-rule="evenodd" d="M181.054 105.585c22.091 0 40-17.909 40-40 0-22.092-17.909-40-40-40-22.092 0-40 17.908-40 40a39.82 39.82 0 008.093 24.127l-6.093 16.873 17.237-6.804a39.816 39.816 0 0020.763 5.804z" fill="#98D4CD"/><rect x="111" width="26" height="105" rx="13" fill="#415148"/></svg>
